X:2935
T:Polska efter Magnus Segerhammar
S:efter Magnus Segerhammar
M:3/4
L:1/16
B:http://www.smus.se/earkiv/fmk/browselarge.php?lang=sw&katalogid=M+41+VI&bildnr=00087
R:Slängpolska
Z:Nils L
O:Småland, Södra Vi, Locknevi
K:D
A2d2 c2d2 B2c2 | ABcd e4 e4 | f2ef g2f2 e2d2 | d2cd edcB A4 | 
A2d2 c2d2 B2c2 | ABcd e4 e4 | f2ef g2e2 b2g2 | fedc d4 D4 ::
f4 a2a2 g2g2 | f4 g2g2 f4 | f2fa g2f2 e2d2 | d2cd edcB A4 | 
f4 a2a2 g2g2 | f4 g2g2 f4 | f2fa g2f2 efga | bgec d4 D4 :| 
(:musicend:)
(:music:)
